docs/.gitbook/assets/icon-download-16@dark.svg

<svg width="32" height="32" viewBox="0 0 16 16" fill="none" xmlns="http://www.w3.org/2000/svg">
<rect x="0" y="0" width="16" height="16" fill="#181c1f"/>
<path fill-rule="evenodd" clip-rule="evenodd" d="M8 1C8.41421 1 8.75 1.33579 8.75 1.75V8.3401L10.7004 6.23966C10.9823 5.93613 11.4568 5.91855 11.7603 6.2004C12.0639 6.48226 12.0814 6.95681 11.7996 7.26034L8.5496 10.7603C8.40769 10.9132 8.20855 11 8 11C7.79145 11 7.59231 10.9132 7.4504 10.7603L4.2004 7.26034C3.91855 6.95681 3.93613 6.48226 4.23966 6.2004C4.54319 5.91855 5.01774 5.93613 5.29959 6.23966L7.25 8.3401V1.75C7.25 1.33579 7.58579 1 8 1ZM1.75 11C2.16421 11 2.5 11.3358 2.5 11.75V12.25C2.5 12.9404 3.05964 13.5 3.75 13.5H12.25C12.9404 13.5 13.5 12.9404 13.5 12.25V11.75C13.5 11.3358 13.8358 11 14.25 11C14.6642 11 15 11.3358 15 11.75V12.25C15 13.7688 13.7688 15 12.25 15H3.75C2.23122 15 1 13.7688 1 12.25V11.75C1 11.3358 1.33579 11 1.75 11Z" fill="#fff"/>
</svg>

<svg xmlns="http://www.w3.org/2000/svg" width="32" height="32" fill="none" viewBox="0 0 16 16"><path fill="#181c1f" d="M0 0h16v16H0z"/><path fill="#fff" fill-rule="evenodd" d="M8 1a.75.75 0 0 1 .75.75v6.59l1.95-2.1a.75.75 0 1 1 1.1 1.02l-3.25 3.5a.75.75 0 0 1-1.1 0L4.2 7.26a.75.75 0 0 1 1.1-1.02l1.95 2.1V1.75A.75.75 0 0 1 8 1M1.75 11a.75.75 0 0 1 .75.75v.5c0 .69.56 1.25 1.25 1.25h8.5c.69 0 1.25-.56 1.25-1.25v-.5a.75.75 0 0 1 1.5 0v.5A2.75 2.75 0 0 1 12.25 15h-8.5A2.75 2.75 0 0 1 1 12.25v-.5a.75.75 0 0 1 .75-.75" clip-rule="evenodd"/></svg>
